X:2381
T:Strumgubben
L:1/8
M:3/4
O:Sweden
Z:Carol Turner
K:G
D |: \
G>(A B)>(c d)>B  | c<e  d3 (c | B)>(d c)>(A B)>G | GF/2E/2 D2 (D2 | \
G)>(A B)>(c d)>B | c<e  d3 (c | B)>(d c)>(A B)>G | G2 G4 :|
d>(f a)>(f g)>(e | d)>(e d)>(c B)>c | (d2(3f2a2f2 g>e | d)>(e d)>(c B)>(c|\
d)>(e d)>(c B)>c|A<F G4:|

